overrides/.icons/class/sorcerer.svg

<?xml version="1.0" encoding="UTF-8"?>
<svg id="svg8" version="1.1" viewBox="0 0 6.35 6.35" xmlns="http://www.w3.org/2000/svg" xmlns:cc="http://creativecommons.org/ns#" xmlns:dc="http://purl.org/dc/elements/1.1/" xmlns:rdf="http://www.w3.org/1999/02/22-rdf-syntax-ns#">
 <defs id="defs2">
  <clipPath id="clipPath1078">
   <path id="path1076" d="m0 2020h2020v-2020h-2020z"/>
  </clipPath>
 </defs>
 <metadata id="metadata5">
  <rdf:RDF>
   <cc:Work rdf:about="">
    <dc:format>image/svg+xml</dc:format>
    <dc:type rdf:resource="http://purl.org/dc/dcmitype/StillImage"/>
   </cc:Work>
  </rdf:RDF>
 </metadata>
 <g id="layer1" transform="translate(205.32 524.98)">
  <g id="g1072" transform="matrix(.0045208 0 0 -.0045208 -206.47 -517.14)" stroke-width="78.034">
   <g id="g1074" clip-path="url(#clipPath1078)" stroke-width="78.034">
    <g id="g1080" transform="translate(1318.1 1123.6)">
     <path id="path1082" d="m0 0c132.71-225.36 32.23-382.5 32.23-382.5 5.411 220.12-132.76 290.36-132.76 290.36l-0.016-3e-3c29.787-40.194 47.561-90.6 47.561-145.37 0-131.28-101.84-237.7-227.46-237.7s-224.24 106.46-227.46 237.7c-1.353 55.037 28.404 146.34 112.72 232.35 55.298 56.413 95.131 116.17 114.68 155.98 77.958 158.74 21.029 340.16-34.346 372.53 0 0 77.017-176.5-42.462-326.74-58.874-74.031-140.31-134.06-208.14-196.37-17.191-14.941-74.889-81.723-96.271-117.31-32.186-53.571-48.615-115.2-48.615-180.27 0-225.53 188.74-408.35 421.56-408.35 232.82 0 427.87 185.45 427.87 410.97 0 117.24-62.219 241.4-139.08 294.72"/>
    </g>
    <g id="g1084" transform="translate(1078.9 928.01)">
     <path id="path1086" d="m0 0-43.728 201.26-43.727-201.26c-2.118-9.748-9.886-17.417-19.907-19.654l-213.65-47.683 213.64-47.682c10.022-2.236 17.79-9.906 19.908-19.654l43.727-201.26 43.728 201.26c2.118 9.748 9.887 17.418 19.908 19.654l213.64 47.682-213.64 47.683c-10.021 2.237-17.79 9.906-19.908 19.654"/>
    </g>
    <g id="g1088" transform="translate(1234.6 1228.6)">
     <path id="path1090" d="m0 0-17.219 79.25-17.219-79.25c-2.229-10.264-10.409-18.339-20.96-20.694l-84.456-18.849 84.456-18.849c10.551-2.355 18.731-10.431 20.96-20.694l17.219-79.251 17.219 79.251c2.23 10.263 10.409 18.339 20.96 20.694l84.456 18.849-84.456 18.849c-10.551 2.355-18.73 10.43-20.96 20.694"/>
    </g>
    <g id="g1092" transform="translate(828.26 1383.1)">
     <path id="path1094" d="m0 0c6.086-23.912-2.128-50.52-22.656-80.251-58.689-85.001-170.9-191.7-231.63-311.84-91.976-181.95-27.503-367.84 36.228-443.83 0 0-244.98 159.85-122.79 433.58 26.021 58.295 79.879 127.38 183.28 216.94 35.544 30.789 79.494 68.898 116.1 109.78 21.963 24.531 36.745 49.189 41.479 75.612"/>
    </g>
   </g>
  </g>
 </g>
</svg>

<?xml version="1.0" encoding="UTF-8" standalone="no"?>
<svg

   viewBox="0 0 6.3499997 6.3500002"
   version="1.1"
   id="svg8"
   inkscape:version="1.3.2 (091e20e, 2023-11-25, custom)"
   sodipodi:docname="class-sorcerer.svg"
   xmlns:inkscape="http://www.inkscape.org/namespaces/inkscape"
   xmlns:sodipodi="http://sodipodi.sourceforge.net/DTD/sodipodi-0.dtd"
   xmlns="http://www.w3.org/2000/svg"
   xmlns:svg="http://www.w3.org/2000/svg"
   xmlns:rdf="http://www.w3.org/1999/02/22-rdf-syntax-ns#"
   xmlns:cc="http://creativecommons.org/ns#"
   xmlns:dc="http://purl.org/dc/elements/1.1/">
  <defs
     id="defs2">
    <clipPath
       clipPathUnits="userSpaceOnUse"
       id="clipPath18">
      <path
         d="M 0,2020 H 2020 V 0 H 0 Z"
         id="path16" />
    </clipPath>
    <clipPath
       clipPathUnits="userSpaceOnUse"
       id="clipPath62">
      <path
         d="M 0,2020 H 2020 V 0 H 0 Z"
         id="path60" />
    </clipPath>
    <clipPath
       clipPathUnits="userSpaceOnUse"
       id="clipPath148">
      <path
         d="M 0,2020 H 2020 V 0 H 0 Z"
         id="path146" />
    </clipPath>
    <clipPath
       clipPathUnits="userSpaceOnUse"
       id="clipPath196">
      <path
         d="M 0,2020 H 2020 V 0 H 0 Z"
         id="path194" />
    </clipPath>
    <clipPath
       clipPathUnits="userSpaceOnUse"
       id="clipPath343">
      <path
         d="M 0,2020 H 2020 V 0 H 0 Z"
         id="path341" />
    </clipPath>
    <clipPath
       clipPathUnits="userSpaceOnUse"
       id="clipPath387">
      <path
         d="M 0,2020 H 2020 V 0 H 0 Z"
         id="path385" />
    </clipPath>
    <clipPath
       clipPathUnits="userSpaceOnUse"
       id="clipPath506">
      <path
         d="M 0,2020 H 2020 V 0 H 0 Z"
         id="path504" />
    </clipPath>
    <clipPath
       clipPathUnits="userSpaceOnUse"
       id="clipPath530">
      <path
         d="M 0,2020 H 2020 V 0 H 0 Z"
         id="path528" />
    </clipPath>
    <clipPath
       clipPathUnits="userSpaceOnUse"
       id="clipPath645">
      <path
         d="M 0,2020 H 2020 V 0 H 0 Z"
         id="path643" />
    </clipPath>
    <clipPath
       clipPathUnits="userSpaceOnUse"
       id="clipPath673">
      <path
         d="M 0,2020 H 2020 V 0 H 0 Z"
         id="path671" />
    </clipPath>
    <clipPath
       clipPathUnits="userSpaceOnUse"
       id="clipPath776">
      <path
         d="M 0,2020 H 2020 V 0 H 0 Z"
         id="path774" />
    </clipPath>
    <clipPath
       clipPathUnits="userSpaceOnUse"
       id="clipPath796">
      <path
         d="M 0,2020 H 2020 V 0 H 0 Z"
         id="path794" />
    </clipPath>
    <clipPath
       clipPathUnits="userSpaceOnUse"
       id="clipPath915">
      <path
         d="M 0,2020 H 2020 V 0 H 0 Z"
         id="path913" />
    </clipPath>
    <clipPath
       clipPathUnits="userSpaceOnUse"
       id="clipPath959">
      <path
         d="M 0,2020 H 2020 V 0 H 0 Z"
         id="path957" />
    </clipPath>
    <clipPath
       clipPathUnits="userSpaceOnUse"
       id="clipPath1078">
      <path
         d="M 0,2020 H 2020 V 0 H 0 Z"
         id="path1076" />
    </clipPath>
    <clipPath
       clipPathUnits="userSpaceOnUse"
       id="clipPath1102">
      <path
         d="M 0,2020 H 2020 V 0 H 0 Z"
         id="path1100" />
    </clipPath>
  </defs>
  <sodipodi:namedview
     id="base"
     pagecolor="#ffffff"
     bordercolor="#666666"
     borderopacity="1.0"
     inkscape:pageopacity="0.0"
     inkscape:pageshadow="2"
     inkscape:zoom="2.5876647"
     inkscape:cx="-20.095339"
     inkscape:cy="-38.838108"
     inkscape:document-units="px"
     inkscape:current-layer="layer1"
     inkscape:document-rotation="0"
     showgrid="false"
     inkscape:window-width="1360"
     inkscape:window-height="715"
     inkscape:window-x="-8"
     inkscape:window-y="-8"
     inkscape:window-maximized="1"
     showborder="true"
     inkscape:showpageshadow="false"
     inkscape:pagecheckerboard="true"
     units="px"
     inkscape:deskcolor="#d1d1d1" />
  <metadata
     id="metadata5">
    <rdf:RDF>
      <cc:Work
         rdf:about="">
        <dc:format>image/svg+xml</dc:format>
        <dc:type
           rdf:resource="http://purl.org/dc/dcmitype/StillImage" />
      </cc:Work>
    </rdf:RDF>
  </metadata>
  <g
     inkscape:label="Layer 1"
     inkscape:groupmode="layer"
     id="layer1"
     transform="translate(205.32204,524.98424)">
    <g
       id="g1072"
       transform="matrix(0.00452079,0,0,-0.00452079,-206.46548,-517.14174)"
       style="stroke-width:78.0344">
      <g
         id="g1074"
         clip-path="url(#clipPath1078)"
         style="stroke-width:78.0344">
        <g
           id="g1080"
           transform="translate(1318.1318,1123.623)"
           style="stroke-width:78.0344">
          <path
             d="m 0,0 c 132.714,-225.36 32.23,-382.504 32.23,-382.504 5.411,220.117 -132.757,290.364 -132.757,290.364 l -0.016,-0.003 c 29.787,-40.194 47.561,-90.6 47.561,-145.371 0,-131.276 -101.838,-237.696 -227.461,-237.696 -125.623,0 -224.236,106.457 -227.46,237.696 -1.353,55.037 28.404,146.343 112.716,232.354 55.298,56.413 95.131,116.173 114.68,155.976 77.958,158.737 21.029,340.162 -34.346,372.534 0,0 77.017,-176.497 -42.462,-326.736 -58.874,-74.031 -140.314,-134.062 -208.14,-196.371 -17.191,-14.941 -74.889,-81.723 -96.271,-117.309 -32.186,-53.571 -48.615,-115.204 -48.615,-180.274 0,-225.527 188.738,-408.353 421.557,-408.353 232.82,0 427.869,185.447 427.869,410.973 C 139.085,-177.478 76.866,-53.318 0,0"
             style="fill-opacity:1;fill-rule:nonzero;stroke:none;stroke-width:78.0344"
             id="path1082" />
        </g>
        <g
           id="g1084"
           transform="translate(1078.9365,928.0063)"
           style="stroke-width:78.0344">
          <path
             d="M 0,0 -43.728,201.259 -87.455,0 c -2.118,-9.748 -9.886,-17.417 -19.907,-19.654 l -213.646,-47.683 213.645,-47.682 c 10.022,-2.236 17.79,-9.906 19.908,-19.654 L -43.728,-335.933 0,-134.673 c 2.118,9.748 9.887,17.418 19.908,19.654 L 233.553,-67.337 19.908,-19.654 C 9.887,-17.417 2.118,-9.748 0,0"
             style="fill-opacity:1;fill-rule:nonzero;stroke:none;stroke-width:78.0344"
             id="path1086" />
        </g>
        <g
           id="g1088"
           transform="translate(1234.5767,1228.6421)"
           style="stroke-width:78.0344">
          <path
             d="M 0,0 -17.219,79.25 -34.438,0 c -2.229,-10.264 -10.409,-18.339 -20.96,-20.694 l -84.456,-18.849 84.456,-18.849 c 10.551,-2.355 18.731,-10.431 20.96,-20.694 L -17.219,-158.337 0,-79.086 c 2.23,10.263 10.409,18.339 20.96,20.694 l 84.456,18.849 -84.456,18.849 C 10.409,-18.339 2.23,-10.264 0,0"
             style="fill-opacity:1;fill-rule:nonzero;stroke:none;stroke-width:78.0344"
             id="path1090" />
        </g>
        <g
           id="g1092"
           transform="translate(828.2632,1383.1279)"
           style="stroke-width:78.0344">
          <path
             d="m 0,0 c 6.086,-23.912 -2.128,-50.52 -22.656,-80.251 -58.689,-85.001 -170.901,-191.701 -231.631,-311.837 -91.976,-181.95 -27.503,-367.842 36.228,-443.834 0,0 -244.977,159.847 -122.794,433.583 26.021,58.295 79.879,127.375 183.276,216.943 35.544,30.789 79.494,68.898 116.098,109.784 C -19.516,-51.081 -4.734,-26.423 0,0"
             style="fill-opacity:1;fill-rule:nonzero;stroke:none;stroke-width:78.0344"
             id="path1094" />
        </g>
      </g>
    </g>
  </g>
</svg>
